src/assets/outline/LocationSlash.svg

<svg width="24" height="24" viewBox="0 0 24 24"  xmlns="http://www.w3.org/2000/svg">
<path d="M10.4199 13.7502C10.2899 13.7502 10.1599 13.7202 10.0399 13.6502C8.85988 12.9602 8.12988 11.6802 8.12988 10.3202C8.12988 8.1902 9.85988 6.4502 11.9999 6.4502C13.3699 6.4502 14.6499 7.1802 15.3399 8.3702C15.5499 8.7302 15.4299 9.1902 15.0699 9.4002C14.7099 9.6102 14.2499 9.4902 14.0399 9.1302C13.6199 8.3902 12.8399 7.9402 11.9999 7.9402C10.6999 7.9402 9.62988 9.0002 9.62988 10.3102C9.62988 11.1502 10.0799 11.9302 10.7999 12.3502C11.1599 12.5602 11.2799 13.0202 11.0699 13.3802C10.9299 13.6102 10.6799 13.7502 10.4199 13.7502Z" />
<path d="M5.99024 18.5601C5.76024 18.5601 5.53024 18.4501 5.38024 18.2501C2.98024 14.9601 2.14024 11.6201 2.89024 8.32007C3.67024 4.89007 6.19024 2.35007 9.63024 1.52007C13.2302 0.650071 17.0102 1.82007 19.2402 4.49007C19.5102 4.81007 19.4602 5.28007 19.1502 5.55007C18.8302 5.82007 18.3602 5.77007 18.0902 5.45007C16.2202 3.21007 13.0402 2.24007 9.98024 2.97007C7.06024 3.67007 5.01024 5.74007 4.35024 8.64007C3.70024 11.5001 4.45024 14.4301 6.59024 17.3501C6.83024 17.6801 6.76024 18.1501 6.43024 18.4001C6.30024 18.5101 6.14024 18.5601 5.99024 18.5601Z" />
<path d="M12.0001 22.7598C10.5201 22.7598 9.03006 22.1998 7.87006 21.0898C7.57006 20.7998 7.56006 20.3298 7.85006 20.0298C8.14006 19.7298 8.61006 19.7198 8.91006 20.0098C10.6401 21.6798 13.3501 21.6798 15.0801 20.0098C17.7501 17.4398 20.7101 13.3798 19.6501 8.66977C19.5601 8.26977 19.8101 7.85977 20.2201 7.76977C20.6201 7.67977 21.0301 7.92977 21.1201 8.33977C22.3401 13.7298 19.0801 18.2498 16.1301 21.0898C14.9701 22.1998 13.4801 22.7598 12.0001 22.7598Z" />
<path d="M1.99994 22.7499C1.80994 22.7499 1.61994 22.6799 1.46994 22.5299C1.17994 22.2399 1.17994 21.7599 1.46994 21.4699L21.4699 1.46994C21.7599 1.17994 22.2399 1.17994 22.5299 1.46994C22.8199 1.75994 22.8199 2.23994 22.5299 2.52994L2.52994 22.5299C2.37994 22.6799 2.18994 22.7499 1.99994 22.7499Z" />
</svg>

<?xml version="1.0" encoding="UTF-8"?>
<svg width="24" height="24" viewBox="0 0 24 24" xmlns="http://www.w3.org/2000/svg">
 <path d="m10.42 13.75c-0.13 0-0.26-0.03-0.38-0.1-1.18-0.69-1.91-1.97-1.91-3.33 0-2.13 1.73-3.87 3.87-3.87 1.37 0 2.65 0.73 3.34 1.92 0.21 0.36 0.09 0.82-0.27 1.03s-0.82 0.09-1.03-0.27c-0.42-0.74-1.2-1.19-2.04-1.19-1.3 0-2.37 1.06-2.37 2.37 0 0.84 0.45002 1.62 1.17 2.04 0.36 0.21 0.48 0.67 0.27 1.03-0.14 0.23-0.39 0.37-0.65 0.37z"/>
 <path d="m5.9902 18.56c-0.23 0-0.46-0.11-0.61-0.31-2.4-3.29-3.24-6.63-2.49-9.93 0.78-3.43 3.3-5.97 6.74-6.8 3.6-0.87 7.38 0.3 9.61 2.97 0.27 0.32 0.22 0.79-0.09 1.06-0.32 0.27-0.79 0.22-1.06-0.1-1.87-2.24-5.05-3.21-8.11-2.48-2.92 0.7-4.97 2.77-5.63 5.67-0.65 2.86 0.1 5.79 2.24 8.71 0.24 0.33 0.17 0.8-0.16 1.05-0.13 0.11-0.29 0.16-0.44 0.16z"/>
 <path d="m12 22.76c-1.48 0-2.97-0.56-4.13-1.67-0.3-0.29-0.31-0.76-0.02-1.06s0.76-0.31 1.06-0.02c1.73 1.67 4.44 1.67 6.17 0 2.67-2.57 5.63-6.63 4.57-11.34-0.09-0.4 0.16-0.81 0.57-0.9 0.4-0.09 0.81 0.16 0.9 0.57 1.22 5.39-2.04 9.91-4.99 12.75-1.16 1.11-2.65 1.67-4.13 1.67z"/>
 <path d="m1.9999 22.75c-0.19 0-0.38-0.07-0.53-0.22-0.29-0.29-0.29-0.77 0-1.06l20-20c0.29-0.29 0.77-0.29 1.06 0s0.29 0.77 0 1.06l-20 20c-0.15 0.15-0.34 0.22-0.53 0.22z"/>
</svg>
